app/assets/images/heroicons/mini/document-currency-pound.svg

<svg width="20" height="20" viewBox="0 0 20 20" fill="none" xmlns="http://www.w3.org/2000/svg">
<path fill-rule="evenodd" clip-rule="evenodd" d="M4.5 2C3.67157 2 3 2.67157 3 3.5V16.5C3 17.3284 3.67157 18 4.5 18H15.5C16.3284 18 17 17.3284 17 16.5V7.62132C17 7.2235 16.842 6.84197 16.5607 6.56066L12.4393 2.43934C12.158 2.15804 11.7765 2 11.3787 2H4.5ZM9.5003 9C9.5003 8.61496 9.6466 8.23238 9.93964 7.93934C10.5254 7.35355 11.4752 7.35355 12.061 7.93934C12.3539 8.23223 12.8287 8.23223 13.1216 7.93934C13.4145 7.64645 13.4145 7.17157 13.1216 6.87868C11.95 5.70711 10.0505 5.70711 8.87898 6.87868C8.29334 7.46432 8.0003 8.23339 8.0003 9V10.2498H6.7501C6.33588 10.2498 6.0001 10.5856 6.0001 10.9998C6.0001 11.414 6.33588 11.7498 6.7501 11.7498H8.0003V12.75C8.0003 13.1642 7.66454 13.5 7.25035 13.5L6.74995 13.5C6.33574 13.5001 5.99998 13.8359 6 14.2501C6.00002 14.6643 6.33584 15.0001 6.75005 15L13.25 14.9999C13.6642 14.9999 14 14.6641 14 14.2499C13.9999 13.8357 13.6642 13.4999 13.2499 13.4999L9.37227 13.5C9.45518 13.2654 9.5003 13.013 9.5003 12.75V11.7498H10.7501C11.1643 11.7498 11.5001 11.414 11.5001 10.9998C11.5001 10.5856 11.1643 10.2498 10.7501 10.2498H9.5003V9Z" fill="black"/>
</svg>

<svg xmlns="http://www.w3.org/2000/svg" viewBox="0 0 20 20" fill="currentColor" aria-hidden="true" data-slot="icon">
  <path fill-rule="evenodd" d="M4.5 2A1.5 1.5 0 0 0 3 3.5v13A1.5 1.5 0 0 0 4.5 18h11a1.5 1.5 0 0 0 1.5-1.5V7.621a1.5 1.5 0 0 0-.44-1.06l-4.12-4.122A1.5 1.5 0 0 0 11.378 2H4.5Zm5 7a1.5 1.5 0 0 1 2.56-1.06.75.75 0 1 0 1.062-1.061A3 3 0 0 0 8 9v1.25H6.75a.75.75 0 0 0 0 1.5H8v1a.75.75 0 0 1-.75.75h-.5a.75.75 0 0 0 0 1.5h6.5a.75.75 0 1 0 0-1.5H9.372c.083-.235.128-.487.128-.75v-1h1.25a.75.75 0 0 0 0-1.5H9.5V9Z" clip-rule="evenodd"/>
</svg>
